X:1
T:Missionary Prayer Hymn
T:Missionary Prayer Hymn
T:Benjamin Burke Beall
T:Benjamin Burke Beall, 1903
T:Public Domain Courtesy of the Cyber Hymnal™
T:Public Domain Courtesy of the Cyber Hymnal™
C:Benjamin Burke Beall
Z:Public Domain
Z:Courtesy of the Cyber Hymnal™
%%score ( 1 2 ) ( 3 4 )
L:1/8
Q:1/4=95
M:4/4
K:C
V:1 treble 
V:2 treble 
V:3 bass 
V:4 bass 
V:1
 [EG] | [Ge]2 [Fd][Ec] [EG]3 [Ec] | [DB]2 [Ec][Fd] [Ec]3 [Gc] | [Ac]2 [GB][FA] ([FA] [EG]2) [Ec] | %4
w: 1.~Our|Fa- ther in Heav’n, On|Thee we do call; Thy|Son Thou hast given, * A|
w: 2.~For|In- dia we pray, Where|mill- ions are taught To|fol- low the way * Which|
w: 3.~For|Chi- na we pray, O|hast- en the time When|bright as the day * The|
w: 4.~May|Af- ri- ca’s name No|long- er be “dark,” Wide|spread by the flame * From|
w: 5.~From|east un- to west, From|north un- to south, May|na- tions Thee bless * With|
 [Ge]2 [Gd][^Fc] [Gd]3 [=F^d] | [Ee]2 [Fd][Ec] [EG] [EG]2 [Ec] | [DB]2 [Ec][Fd] [Ec]3 [Gc] | %7
w: Sav- ior for all; But|thou- sands are dy- ing, Who|know not the Lord, For|
w: e- vil hath wrought; We,|know- ing the Sav- ior, Whose|Word is at hand, O|
w: Gos- pel will shine; When|par- ents and child- ren On|Je- sus shall call, When|
w: mar- tyr- dom’s spark; May|Christ- ians en- dea- vor To|fur- nish the light, Both|
w: heart and with mouth; Then,|Je- sus re- turn- ing To|call home His own, Brands|
 [Ac]2 [GB][FA] [FA] [EG]2 [Gc] | [Ge]2 [Fd][Fd] !fermata![Ec] ||[M:6/4]"^Refrain" [Ec] (d^c)[Ge] | %10
w: them we are pray- ing, O|send them Thy Word.||
w: God, may we la- bor, To|har- vest their land.|The call * is|
w: all that is hin- dering Be-|fore Him shall fall.||
w: now and for- ev- er Es-|tab- lish Thy sight.||
w: plucked from the burn- ing Shall|cir- cle His throne.||
 [Gd]8 [Ec] ([DB][Ec])[Fd] | [Ec]8 [Gc] ([Ac][GB])[FA] | [EG]8 [Ec] (ed)[^Fc] | %13
w: |||
w: great, but in * Thy|strength We hast- * en|forth, most gra- * cious|
w: |||
w: |||
w: |||
 d8 [=F^d] ([Ee][Fd])[Ec] | [EG]8 [Ec] ([DB][Ec])[Fd] | c8 [Gc] ([Ac][GB])[FA] | %16
w: |||
w: Lord, For thou- * sands|die each day * and|hour, Who know * not|
w: |||
w: |||
w: |||
 [EG]8 [Gc] !fermata![Ge]2 [Fd] | c8 |] %18
w: ||
w: Thee, O send Thy|Word.|
w: ||
w: ||
w: ||
V:2
 x | x8 | x8 | x8 | x8 | x8 | x8 | x8 | x5 ||[M:6/4] x G2 x | x12 | x12 | x9 G2 x | %13
 (G3 ^F3 G2) x4 | x12 | (E3 F3 E2) x4 | x12 | (E2 E F2 F E2) |] %18
V:3
 [C,C] | [C,C]2 [C,G,][C,G,] [C,C]3 [C,G,] | G,2 G,G, [C,G,]3 [E,C] | %3
w: ~|~ ~ ~ ~ ~|~ ~ ~ ~ ~|
 [F,C]2 [F,C][F,C] [C,C]3 [C,C] | C2 [B,D][A,D] [G,B,]3 [G,B,] | %5
w: ~ ~ ~ ~ ~|~ ~ ~ ~ ~|
 [C,C]2 [C,G,][C,G,] [C,C] [C,C]2 [C,G,] | G,2 G,G, [C,G,]3 [E,C] | %7
w: ~ ~ ~ ~ ~ ~|~ ~ ~ ~ ~|
 [F,C]2 [F,C][F,C] [C,C] [C,C]2 [E,C] | [G,C]2 [G,B,]G, !fermata![C,G,] || %9
w: ~ ~ ~ ~ ~ ~|~ ~ ~ ~|
[M:6/4] [C,C] (B,^A,)[G,C] | [G,B,]2 [G,B,] [G,B,]2 [G,B,] [G,B,]2 G, G,2 G, | %11
w: ~ ~ * ~|~ The call is great, ~ ~ ~|
 [C,G,]2 [C,G,] [F,A,]2 [F,A,] [C,G,]2 [E,C] [F,C]2 [F,C] | %12
w: ~ but in Thy strength ~ ~ ~|
 [C,C]2 [C,C] [C,C]2 [C,C] [C,C]2 [C,C] (C[B,D])[A,D] | %13
w: ~ We hast- en forth, ~ ~ * ~|
 [G,B,]2 [G,B,] [D,A,]2 [D,A,] [G,B,]2 [A,C] [C,C]2 [C,G,] | %14
w: ~ most gra- cious Lord, ~ ~ ~|
 [C,C]2 [C,C] [C,C]2 [C,C] [C,C]2 [C,G,] G,2 G, | %15
w: ~ For thou- sands die ~ ~ ~|
 [C,G,]2 [C,G,] [F,A,]2 [F,A,] [C,G,]2 [E,C] [F,C]2 [F,C] | %16
w: ~ Each day and hour, ~ ~ ~|
 [C,C]2 [C,C] [C,C]2 [C,C] [C,C]2 [E,C] !fermata![G,C]2 G, | G,2 G, A,2 A, G,2 |] %18
w: Who know not Thee, ~ ~ ~ ~|~ O send Thy Word.|
V:4
 x | x8 | G,2 G,G, x4 | x8 | C2 x6 | x8 | G,2 G,G, x4 | x8 | x3 G, x ||[M:6/4] x G,2 x | %10
 x8 G, G,2 G, | x12 | x12 | x12 | x9 G,2 G, | x12 | x11 G, | C,8 |] %18

